X:709
T:Perth Shire Hunt. JBut.706
T:Boyne Hunt, aka. JBut.706, The
N:aka Perth:Shire Hunt, Aird's Airs, vol. 6, No.43, p.17, similar setting.
N:Credited there to N.G. (possibly Niel or Nathaniel Gow), in error.
N:Alternative (Irish) title The Boyne Hunt, Francis O'Neill: "The Dance Music of Ireland" (1907) no. 514
B:John Buttrey MS, poss. Lincolnshire, early 19thC
S:https://buttreymilitarysocialtunes1800.wordpress.com/
Z:vmp.2019.Greg Bradfield-Smith.
C:Composed by Miss Stirling for the Perthshire Hunt Ball.
M:C
L:1/8
Q:1/4=120
K:D
B|TA2FA DAFA|DAFA BEEB|TA2 FA DAFd|faeg fdd:|
"_redundant repeat mark removed."a|f/e/d ad bdad|f/e/d ad |  beea|f/e/d ad bdad|A>Bde fdda|
f/e/d ad bdad|f/e/d ad beeg|fadf gbef|TA>Bde fdd|]

